X:1
T:Boylston, SM
T:Boylston, SM
T:Lowell Mason, 1833
T:Public Domain Courtesy of the Cyber Hymnal™
C:Lowell Mason, 1833
Z:Public Domain
Z:Courtesy of the Cyber Hymnal™
%%score 1 ( 2 3 )
L:1/8
Q:1/4=108
M:3/4
K:C
V:1 treble 
V:2 bass 
V:3 bass 
V:1
 [EG]2 | [CE][DF] [EG]2 [FA]2 | [EG]4 [Ec]2 | [^Fc][DB] [EA]2 [DA]2 | [DG]4 [EG]2 | %5
 [CE][CF] [CG]2 [EG]2 | [FA][FB] [Ec]2 [DB]2 | [Cc][FA] [DG]2 [FG]2 | [EG]4 |] %9
V:2
 [C,G,]2 | [C,G,][C,G,] (G,C) [F,C]2 | [C,C]4 [C,C]2 | [D,A,]G, [C,G,]2 (^F,C) | [G,B,]4 [C,C]2 | %5
 [C,G,][D,G,] [E,G,]2 [C,C]2 | [F,C][D,G,] [C,G,]2 G,2 | [E,G,][F,C] [G,C]2 [G,,B,]2 | [C,C]4 |] %9
V:3
 x2 | x2 C,2 x2 | x6 | x G, x D,2 x | x6 | x6 | x4 G,2 | x6 | x4 |] %9

